X: 20424
T: John Egan's
R: reel
M: 4/4
K: Dmixolydian
|cF F2 AFEF|AFEF A2 AB|cF F2 AFEF|Acec B2 AB|
cF F2 AFEF|AFEF A2 AB|cF F2 AFEF|Acec B2 cB||
A2 AA ABcB|ABcB AFEF|A2 AA ABce|faec B2 cB|
A2 AA ABcB|ABcB AFEF|A2 AA ABce|faec B2 AB||

